X: 148
T: The Runaway
%R: reel
B: Chas & Sam Thompson "Twenty Four Country Dances for the Year 1779", London 1779, p.74 #2
F: http://www.vwml.org/browse/browse-collections-dance-tune-books/browse-thompsons1779
Z: 2014 John Chambers <jc:trillian.mit.edu> (added dance description)
M: 2/4
L: 1/16
K: A
% - - - - - - - - - - - - - - - - - - - - - - - - - - - - -
|: ABcd ecAc   | Bcde  fdBd  | cefg aefd | cBAG A2A,2 :|
|: aAce a=gf^e | fB^df ba^gf | geaf gbeg | fa^df e2e2 :|
|: aeae cefe   | fedc  cBAG  | ABcd efga | ecdB A2A,2 :|
% - - - - - - - - - - Dance description - - - - - - - - - -
%%begintext align
%%   The 1st Lady turn the 3d Gent: & retreat
%% back to her place .|. the 1st Gent: turn the
%% 3d Lady & remain at bottom :|. Sett 3 & 3
%% top and bottom .|: Sett 3 & 3 sideways :|:
%% hands Six quite round .|:. :|:.
%%endtext

%%sep 1 1 500
%%sep 1 1 500
